X: 5
T: Fisher's
R: hornpipe
M: 4/4
L: 1/8
K: Fmaj
fe|:fcAc BdcB|AFcF BdcB|AFcF BABG|AGAF G2fe|fcAc BdcB|AFcF BdcB|ABcd ebge|[1 f2fe fgfe:|[2 f2fe f2ef|gece gebg|afcf afef|gece geba|gfed c2(3ABc|dBFB defd|cAFA cAec|dfed cBAG|F2f2 (3fgf ef|gece gebg|afcf afef|gece g^fga|gfed c2fe|dBFB defd|cAFA cAec|dfed cBAG| F2fe fgfe||


Tune 872	Setting 20909

